X: 2211
T: GIN I HAD A BONNY LASS
Q: "Reel."
R: Reel.
%R: reel
B: James Kerr "Merry Melodies" v.2 p.23 #211
Z: 2016 John Chambers <jc:trillian.mit.edu>
M: C
L: 1/8
K: Gm
ud |\
BGGA Bcd=e | fgfc A2(FA) |\
BGGA Bcdg | BGA^F G3 :|\
u^f |\
gagd gagd | fgfc A2(FA) |
gagd gagd | gaba g2(d=e) |\
fgaf g=efd | cAfc A2(FA) |\
BGGA Bcdg | BGA^F G3 |]

%%newpage
%%center HIGHLAND SCHOTTISCHES.

%%sep 1 1 500
%%sep 1 1 500

